X: 108
T:The Porcupine
M:6/8
L:1/8
C:Jean-Pierre Rasle
R:Jig
Z:Steve Mansfield
K:G
D | G2G BdB | AGF G2D | E2E GED | E2E GED | G2G BdB | AGF G2D |
EDE FEF |1 G3G2 :|2 G3 GBd |: c2c cBA | B2B BAG | A2A AGF |
G2G GBd | c2c cBA | B2B BAG | A2A AGF |1 G2G GBd :|2 G3G2 ||
<end>
<start>
